X: 29332
T: Newcastle
R: barndance
M: 4/4
K: Gmajor
G3A|:B2 d2 G3 A|G2 D2 G2 A2|B2 d2 G2 d2|e2 g4 fe|
d2 B2 A2 G2|E2 e4 dB|d2 B2 A2 BA|1 G4 G3A:|2 G4 G2 ef||
|:gfef g2 B2|A2 e4 BA|G3 A G2G2|E2 D2 e2f2|
gfef g2 B2|A2 B2 c2d2|e2 B2 A2 BA|1 G4 G2 ef:|2 G4||

